X: 2
T: The Merrymakers Club
M: 4/4
L: 1/8
R: Hornpipe
K: G Major
|: (3def | 
gage dgbd | cfac Bdgd | BGdB cAag | (3fgf (3efe defd | 
gage dgbd | cfac Bdgd | Bgfg ecAF | G2 G2 G2 :|
|: dc | 
BGFG EGG | B,DGB cBAG | A^GAB cBAG | (3GBG (3FGE (3DEC (3B,CA, | 
G,B,DG BdcB | cdef gfge | dbca ecAF | G2 G2 G2 :|
